X: 1
T: Birthday, The
M: 4/4
L: 1/8
R: reel
K: Dmaj
d>ef>a g>fe>c | d2f>d A>dF>D | G>AB>G F>GA>F | E>AA>^G A>Bc>A|
d>ef>a g>fe>c | d2f>d A>dF>D | G>AB>d A>Bc>e | d>BA>F D3 z :|
F2F>G F>ED>E | F2F>G F>E D2 | G2 G>A G>FG>B | e>dc>B A>GF>E |
F2F>G F>ED>E | F2F>G F>E D2 | G>FG>A B>AB>d | A>GF>E D3 z :|
